X:1
T:Title
%%score ( 1 2 3 ) ( 4 5 )
L:1/8
Q:1/4=140
M:4/4
K:Db
V:1 treble nm="Grand Piano, Staff 1"
V:2 treble 
V:3 treble 
V:4 bass nm="Choir Pad, DePauw, LM"
V:5 bass 
V:1
 [DA]4 [CF]3 [CE] | [A,D]6 [A,D]2 | [DF]4 [DA]4 | [Dd]8 | [Dd]4 [Ec]2 [CB]2 | [DA]4 [DF]4 | %6
w: By~Robert~Guy~McCutchan,~1930 * *||||||
 [DF]4 [B,D]4 | [CA]8 | [_CA]4 [CF]2 [CD]2 | B6 z2 | [=Ge]4 [Gd]4 | [Ac]4 [EB]2 A2 | [Ad]4 [DA]4 | %13
w: |||||||
 A2 z2 A2 z2 | A6 z2 | [A,D]8 |] %16
w: |||
V:2
 x8 | x8 | x8 | x8 | x8 | x8 | x8 | x8 | x8 | B,2 D2 G2 [AB]2 | x8 | x8 | x8 | %13
 D2- [DG]2 D2- [DB]2 | D2 B,2 z2 E2 | x8 |] %16
V:3
 x8 | x8 | x8 | x8 | x8 | x8 | x8 | x8 | x8 | x8 | x8 | x8 | x8 | x8 | z4 C4 | x8 |] %16
V:4
 [D,F,]4 [A,,A,]3 [A,,G,] | G,4 z4 | [D,A,]4 [C,F,]4 | [B,,F,]8 | [B,,G,]4 [E,G,]2 [E,G,]2 | %5
 z4 A,4 | [B,,=G,]4 [E,G,]4 | A,4 z4 | [D,F,]4 [D,A,]2 [F,A,]2 | [G,B,]6 [F,B,]2 | [E,B,]4 [E,E]4 | %11
 [A,E]4 [G,C]2 [G,C]2 | [F,D]4 [F,_C]4 | B,2- [E,B,]2 B,2- [G,B,]2 | A,4 [A,,G,]4 | [D,F,]8 |] %16
V:5
 x8 | D,4- [D,F,]2 [D,F,]2 | x8 | x8 | x8 | [F,A,]4 D,2 C,2 | x8 | A,,4- [A,,G,]4 | x8 | x8 | x8 | %11
 x8 | x8 | G,2 z2 F,2 z2 | x8 | x8 |] %16

